pro/src/icons/full-validate.svg

<svg width="48" height="48" viewBox="0 0 48 48" xmlns="http://www.w3.org/2000/svg">
<path id="icon" fill-rule="evenodd" clip-rule="evenodd" d="M24 44C35.0457 44 44 35.0457 44 24C44 12.9543 35.0457 4 24 4C12.9543 4 4 12.9543 4 24C4 35.0457 12.9543 44 24 44ZM34.5064 19.0406C35.1603 18.3496 35.1651 17.2239 34.5173 16.5265C33.8694 15.829 32.8141 15.8239 32.1603 16.5149L21.1214 28.1818L15.8395 22.6019C15.1855 21.911 14.1302 21.9165 13.4825 22.6141C12.8348 23.3117 12.8399 24.4373 13.4939 25.1282L19.2034 31.1598C20.2638 32.2801 21.9795 32.2798 23.0399 31.1596L34.5064 19.0406Z" fill="currentColor"/>
</svg>

<svg xmlns="http://www.w3.org/2000/svg" width="48" height="48"><path id="icon" fill="currentColor" fill-rule="evenodd" d="M24 44c11.046 0 20-8.954 20-20S35.046 4 24 4 4 12.954 4 24s8.954 20 20 20m10.506-24.96a1.863 1.863 0 0 0 .011-2.514 1.594 1.594 0 0 0-2.357-.011L21.121 28.182l-5.281-5.58a1.594 1.594 0 0 0-2.357.012 1.863 1.863 0 0 0 .01 2.514l5.71 6.032a2.61 2.61 0 0 0 3.837 0z" clip-rule="evenodd"/></svg>
